packages/kaspersky-hexa-ui-icons/src/iconsSVGs/28x20/FlagIq.svg

<svg width="28" height="20" viewBox="0 0 28 20" fill="none" xmlns="http://www.w3.org/2000/svg">
<g clip-path="url(#clip0_5138_1085)">
<path d="M0 2C0 0.895431 0.895431 0 2 0H26C27.1046 0 28 0.895431 28 2V18C28 19.1046 27.1046 20 26 20H2C0.895431 20 0 19.1046 0 18V2Z" fill="white"/>
<mask id="mask0_5138_1085" style="mask-type:luminance" maskUnits="userSpaceOnUse" x="0" y="0" width="28" height="20">
<rect width="28" height="20" rx="2" fill="white"/>
</mask>
<g mask="url(#mask0_5138_1085)">
<path d="M26 19.5V20H2V19.5H26ZM27.5 18V2C27.5 1.17157 26.8284 0.5 26 0.5H2C1.17157 0.5 0.5 1.17157 0.5 2V18C0.5 18.8284 1.17157 19.5 2 19.5V20C0.895431 20 0 19.1046 0 18V2C2.57702e-07 0.895431 0.895431 0 2 0H26C27.1046 0 28 0.895431 28 2V18C28 19.1046 27.1046 20 26 20V19.5C26.8284 19.5 27.5 18.8284 27.5 18Z" fill="#F5F5F5"/>
<path fill-rule="evenodd" clip-rule="evenodd" d="M0 6.66667H28V0H0V6.66667Z" fill="#DF1E35"/>
<path fill-rule="evenodd" clip-rule="evenodd" d="M0 20H28V13.3333H0V20Z" fill="#262626"/>
<path fill-rule="evenodd" clip-rule="evenodd" d="M18.6667 8.53934C18.6667 8.29155 18.9274 8.13039 19.1491 8.2412L19.8157 8.57454C19.9287 8.631 20 8.74642 20 8.87268V11.6667C20 11.8508 19.8508 12 19.6667 12H19C18.8159 12 18.6667 11.8508 18.6667 11.6667V8.53934Z" fill="#0F7A40"/>
<path fill-rule="evenodd" clip-rule="evenodd" d="M10.6667 8.53934C10.6667 8.29155 10.9274 8.13039 11.1491 8.2412L11.8157 8.57454C11.9287 8.631 12 8.74642 12 8.87268V11.6667C12 11.8508 11.8508 12 11.6667 12H11C10.8159 12 10.6667 11.8508 10.6667 11.6667V8.53934Z" fill="#0F7A40"/>
<path fill-rule="evenodd" clip-rule="evenodd" d="M16 8.87268C16 8.74642 16.0713 8.631 16.1843 8.57454L16.8509 8.2412C17.0726 8.13039 17.3333 8.29155 17.3333 8.53934V11.6667C17.3333 11.8508 17.1841 12 17 12H16.3333C16.1492 12 16 11.8508 16 11.6667V8.87268Z" fill="#0F7A40"/>
<path fill-rule="evenodd" clip-rule="evenodd" d="M13.3333 10.206C13.3333 10.0798 13.4047 9.96434 13.5176 9.90787L14.1843 9.57454C14.4059 9.46372 14.6667 9.62489 14.6667 9.87268V10.7264H16.6667V12H14.6667H13.6667C13.4826 12 13.3333 11.8508 13.3333 11.6667V10.206Z" fill="#0F7A40"/>
<path fill-rule="evenodd" clip-rule="evenodd" d="M8 10.206C8 10.0798 8.07133 9.96434 8.18426 9.90787L8.85093 9.57454C9.07256 9.46372 9.33333 9.62489 9.33333 9.87268V10.7264H11.3333V12H9.33333H8.33333C8.14924 12 8 11.8508 8 11.6667V10.206Z" fill="#0F7A40"/>
</g>
</g>
<defs>
<clipPath id="clip0_5138_1085">
<rect width="28" height="20" fill="white"/>
</clipPath>
</defs>
</svg>

<svg xmlns="http://www.w3.org/2000/svg" width="28" height="20" fill="none" viewBox="0 0 28 20"><g clip-path="url(#a)"><path fill="#fff" d="M0 2C0 .8954.8954 0 2 0h24c1.1046 0 2 .8954 2 2v16c0 1.1046-.8954 2-2 2H2c-1.1046 0-2-.8954-2-2z"/><mask id="b" width="28" height="20" x="0" y="0" maskUnits="userSpaceOnUse" style="mask-type:luminance"><rect width="28" height="20" fill="#fff" rx="2"/></mask><g mask="url(#b)"><path fill="#f5f5f5" d="M26 19.5v.5H2v-.5zm1.5-1.5V2c0-.8284-.6716-1.5-1.5-1.5H2C1.1716.5.5 1.1716.5 2v16c0 .8284.6716 1.5 1.5 1.5v.5c-1.1046 0-2-.8954-2-2V2C0 .8954.8954 0 2 0h24c1.1046 0 2 .8954 2 2v16c0 1.1046-.8954 2-2 2v-.5c.8284 0 1.5-.6716 1.5-1.5"/><path fill="#df1e35" fill-rule="evenodd" d="M0 6.6667h28V0H0z" clip-rule="evenodd"/><path fill="#262626" fill-rule="evenodd" d="M0 20h28v-6.6667H0z" clip-rule="evenodd"/><path fill="#0f7a40" fill-rule="evenodd" d="M18.667 8.539c0-.248.261-.409.482-.298l.667.333a.333.333 0 0 1 .184.299v2.794a.333.333 0 0 1-.333.333H19a.333.333 0 0 1-.333-.333zm-8 0c0-.248.261-.409.482-.298l.667.333a.333.333 0 0 1 .184.299v2.794a.333.333 0 0 1-.333.333H11a.333.333 0 0 1-.333-.333zM16 8.873a.333.333 0 0 1 .184-.298l.667-.333c.222-.111.482.05.482.298v3.127A.333.333 0 0 1 17 12h-.667a.333.333 0 0 1-.333-.333z" clip-rule="evenodd"/><path fill="#0f7a40" fill-rule="evenodd" d="M13.333 10.206a.334.334 0 0 1 .184-.298l.667-.333c.222-.111.482.05.482.298v.854h2V12h-3a.333.333 0 0 1-.333-.333zm-5.333 0a.333.333 0 0 1 .184-.298l.667-.333c.222-.111.482.05.482.298v.854h2V12h-3A.333.333 0 0 1 8 11.667z" clip-rule="evenodd"/></g></g><defs><clipPath id="a"><path fill="#fff" d="M0 0h28v20H0z"/></clipPath></defs></svg>
